images/ic_token_imkr.svg

<svg height="250" viewBox="0 0 250 250" width="250" xmlns="http://www.w3.org/2000/svg"><path d="m125 0c69.035156 0 125 55.964844 125 125s-55.964844 125-125 125-125-55.964844-125-125 55.964844-125 125-125zm0 0" fill="#1bbc9a"/><g fill="#fff"><path d="m60.789062 80.160156c1.027344-.515625 2.261719-.40625 3.183594.28125l53.144532 39.917969c.761718.574219 1.21875 1.472656 1.226562 2.429687v45.648438c-.003906 1.679688-1.363281 3.039062-3.042969 3.042969-1.679687-.003907-3.039062-1.363281-3.042969-3.042969v-44.113281l-47.0625-35.367188v79.484375c-.003906 1.679688-1.363281 3.039063-3.042968 3.042969-.804688.007813-1.578125-.308594-2.152344-.875-.570312-.566406-.890625-1.339844-.890625-2.144531v-85.59375c0-1.148438.648437-2.199219 1.679687-2.710938zm0 0"/><path d="m190.25 80.160156c1.027344.515625 1.675781 1.5625 1.675781 2.710938v85.589844c-.058593 1.636718-1.402343 2.933593-3.042969 2.933593-1.636718 0-2.980468-1.296875-3.039062-2.933593v-79.507813l-47.042969 35.371094v44.140625c-.058593 1.636718-1.402343 2.933594-3.042969 2.933594-1.636718 0-2.980468-1.296876-3.039062-2.933594v-45.652344c-.003906-.960938.449219-1.863281 1.226562-2.429688l53.097657-39.941406c.929687-.6875 2.171875-.796875 3.207031-.28125zm0 0"/></g></svg>

<svg xmlns="http://www.w3.org/2000/svg" width="250" height="250"><path fill="#1bbc9a" d="M125 0c69.035 0 125 55.965 125 125s-55.965 125-125 125S0 194.035 0 125 55.965 0 125 0zm0 0"/><g fill="#fff"><path d="M60.79 80.16a3.046 3.046 0 0 1 3.183.281l53.144 39.918a3.079 3.079 0 0 1 1.227 2.43v45.648a3.05 3.05 0 0 1-3.043 3.043 3.05 3.05 0 0 1-3.043-3.042v-44.114L65.195 88.957v79.484a3.05 3.05 0 0 1-3.043 3.043A3.024 3.024 0 0 1 60 170.61a3.024 3.024 0 0 1-.89-2.144V82.87c0-1.148.648-2.2 1.68-2.71zM190.25 80.16a3.032 3.032 0 0 1 1.676 2.711v85.59a3.043 3.043 0 0 1-6.082 0V88.953L138.8 124.324v44.14a3.043 3.043 0 0 1-6.082 0v-45.651a2.985 2.985 0 0 1 1.226-2.43l53.098-39.942a3.087 3.087 0 0 1 3.207-.28zm0 0"/></g></svg>
